X:159
T:The Queen's old courtier
M:C
L:1/8
K:A
%%score 1 2
V:1 clef-treble
V:2 clef-bass octave=-1
V:1
!fermata![CEA]8|[B,EGB]4A3B&x4E4|
w:With~an~old~song,~made~by~an~old~ancient~pate,||
w:Of~an~old~worshipful~gentleman,~who~had~a~great~estate,||
w:Which~kept~an~old~house~at~a~bountiful~rate,||
w:And~an~old~porter~to~relieve~the~poor~at~his gate. Like an
V:2
!fermata![A,EA]8|[E,E]4F,3G,|
V:1
[EAc]4[DGB]2[EA]2|[A,DG]2F2!fermata![DFd]2ed|[EAc]4[DGB]4|[CA]8||
w:old Cour-tier of the Queen's, And the Queen's old Courtier.
V:2
[A,,A,]4[B,,B,]2[C,C]2|[D,D]4!fermata![D,B,]4|[E,A,E]4[E,B,E]4|[A,CEA]8||

